X:495
T:Boldogasszony Anyank
Z:Jack Campin, http://www.campin.me.uk/
F:Jack Campin's Nine-Note Tunebook
% last edit 03-02-2013
G:old Hungarian nationalist hymn
M:4/4
L:1/4
Q:1/4=90
K:DMin
        A B A G   |A G2z |\
        A A G A/G/|F2 E2:|
[M:3/2] D E F E    D2|\
        F F G<  G  A2|
[M:4/4] A A G A   |B2 A2 |\
        D E F G   |E2 D2|]

